X:468510
T: Troy's Wedding
R: jig
M: 6/8
L: 1/8
H:
C: Colin Magee
B: https://thesession.org/tunes/2014
O:Kevin Fraser
Z:Kevin Fraser
Q:3/8=120
U: R = ///
U: r = //
U: V = !accent!
V:M gstem=up stem=down name="Melody"
V:H gstem=up stem=down name="Harmony"
V:C gstem=up stem=down name="C-Harmony"
V:S gstem=up stem=down dyn=up stafflines=1 clef=perc middle=G name="Snare" sname="Snare"
V:B gstem=up stem=down clef=none dyn=up name="Bass"
V:T gstem=up stem=down clef=none dyn=up name="Tenor"
V:BB gstem=up stem=down name="Brass Bass" sname="ABCD-C" transpose=-1  octave=-1 clef=bass
V:BC gstem=up stem=down name="Brass Chord" sname="ABCD-D" transpose=-1
V:BD gstem=up stem=down name="Brass Chord 2" sname="ABCD-B" transpose=-1
V:P gstem=up stem=down name="Piano" octave=-1
K:HP
K: Dmaj
|{g}A{d}A{e}A {Gdc}d2c|{g}B{d}B{e}B {gef}e2d|{g}c{d}A{e}A {g}A{d}B{e}c |{g}dcd {gfg}f2d|
{g}A{d}A{e}A {Gdc}d2c|{g}B{d}B{e}B {gef}e2d|{g}ca{g}a {f}ge{e}c|{g}A{d}B{e}c {Gdc}d3:|
|:{a}ge{A}e {g}ege|{g}fd{G}d {g}dfd|{g}ec{e}A {g}A{d}B{e}c |{g}dcd {gfg}f2d|
[1{a}ge{A}e {g}ege|{g}fd{e}B {g}A2d|{g}ca{g}a {f}ge{A}e|{g}A{d}B{e}c {Gdc}d3:|
[2{g}B{d}G{e}G {g}B{d}c{e}d|{g}Ad{G}d {gfg}f2d|{g}ca{g}a {f}ge{A}e|{g}A{d}B{e}c {Gdc}d3||
[| {g}A{d}A{e}A  {g}Bac| | a{g}ad aea|fa{g}a {f}ge{e}c|{g}dcd {gfg}f2d|
   {g}A{d}A{e}A  {g}Bac|a{g}ad aea|fa{g}a {f}ge{e}c|{g}A{d}B{e}c {Gdc}d3|
 {g}Aa{g}a {g}Bac| | a{g}ad aea|fa{g}a ea{g}a|dac aBa | 
   {g}Aa{g}a {g}Bac|a{g}ad aea|fa{g}a {f}ge{e}c|{g}A{d}B{e}c {Gdc}d3 |]
{g}Ac{A}c {g}ce{A}e|{g}Ad{G}d {g}df{e}f|{g}ec{e}A {g}A{d}B{e}c |{g}dcd {gfg}f2d|
{g}A{d}A{e}A {g}c{d}A{e}A|{g}dBd {g}fed|{g}ca{g}a {f}ge{e}c|{g}A{d}B{e}c {Gdc}d3|
{g}A{d}c{e}A {g}ec{e}A|{g}dfd {g}afd|{g}ec{e}A {g}A{d}B{e}c |{g}dcd {gfg}f2d|
{g}B{d}G{e}G {g}B{d}c{e}d|{g}Ad{G}d {gfg}f2d|{g}ca{g}a {f}ge{A}e|{g}A{d}B{e}c {Gdc}d3|

